icons/wsl-light.svg

<svg width="256" height="256" viewBox="0 0 256 256" fill="none" xmlns="http://www.w3.org/2000/svg">
<path d="M196 0H60C26.8629 0 0 26.8629 0 60V196C0 229.137 26.8629 256 60 256H196C229.137 256 256 229.137 256 196V60C256 26.8629 229.137 0 196 0Z" fill="#F4F2ED"/>
<path d="M46 100.5C46 54.9365 82.9365 18 128.5 18C174.063 18 211 54.9365 211 100.5V230.766C211 234.761 207.761 238 203.766 238H53.234C49.2388 238 46 234.761 46 230.766V100.5Z" fill="#0A5DA9"/>
<path d="M66.8423 134.947H190.737V151.158C190.737 185.37 163.002 213.105 128.79 213.105C94.5771 213.105 66.8423 185.37 66.8423 151.158V134.947Z" fill="#FFC700"/>
<path d="M66.8423 134.947H190.737V139.579C190.737 173.791 163.002 201.526 128.79 201.526C94.5771 201.526 66.8423 173.791 66.8423 139.579V134.947Z" fill="white"/>
<path d="M66.8423 93.2631C66.8423 77.9154 79.2841 65.4736 94.6318 65.4736C109.979 65.4736 122.421 77.9154 122.421 93.2631V134.947H66.8423V93.2631Z" fill="white"/>
<path d="M135.158 93.2631C135.158 77.9154 147.599 65.4736 162.947 65.4736C178.295 65.4736 190.737 77.9154 190.737 93.2631V134.947H135.158V93.2631Z" fill="white"/>
<circle cx="94.3422" cy="100.5" r="13.0263" fill="black"/>
<circle cx="162.658" cy="100.5" r="13.0263" fill="black"/>
<g clip-path="url(#clip0_658_71)">
<rect x="101" y="121.053" width="55" height="55" rx="27.5" fill="#C36209"/>
<circle cx="148.5" cy="168.553" r="47.5" fill="#C36209"/>
<circle cx="128.5" cy="-45.5" r="197.5" fill="#F2900C"/>
</g>
<defs>
<clipPath id="clip0_658_71">
<rect x="101" y="121.053" width="55" height="55" rx="27.5" fill="white"/>
</clipPath>
</defs>
</svg>

<svg xmlns="http://www.w3.org/2000/svg" width="256" height="256" fill="none"><path fill="#F4F2ED" d="M196 0H60C26.863 0 0 26.863 0 60v136c0 33.137 26.863 60 60 60h136c33.137 0 60-26.863 60-60V60c0-33.137-26.863-60-60-60"/><path fill="#0A5DA9" d="M46 100.5C46 54.937 82.936 18 128.5 18S211 54.937 211 100.5v130.266a7.234 7.234 0 0 1-7.234 7.234H53.234A7.234 7.234 0 0 1 46 230.766z"/><path fill="#FFC700" d="M66.842 134.947h123.895v16.211c0 34.212-27.735 61.947-61.947 61.947s-61.948-27.735-61.948-61.947z"/><path fill="#fff" d="M66.842 134.947h123.895v4.632c0 34.212-27.735 61.947-61.947 61.947s-61.948-27.735-61.948-61.947zm0-41.684c0-15.348 12.442-27.79 27.79-27.79s27.789 12.442 27.789 27.79v41.684H66.842zm68.316 0c0-15.348 12.441-27.79 27.789-27.79s27.79 12.442 27.79 27.79v41.684h-55.579z"/><circle cx="94.342" cy="100.5" r="13.026" fill="#000"/><circle cx="162.658" cy="100.5" r="13.026" fill="#000"/><g clip-path="url(#clip0_658_71)"><rect width="55" height="55" x="101" y="121.053" fill="#C36209" rx="27.5"/><circle cx="148.5" cy="168.553" r="47.5" fill="#C36209"/><circle cx="128.5" cy="-45.5" r="197.5" fill="#F2900C"/></g><defs><clipPath id="clip0_658_71"><rect width="55" height="55" x="101" y="121.053" fill="#fff" rx="27.5"/></clipPath></defs></svg>
